icon/ir/snow-flake.svg

<svg width="24" height="24" stroke-width="1.5" fill="none" xmlns="http://www.w3.org/2000/svg"><path d="m3 7 3.5 2M21 17l-3.5-2M12 12 6.5 9m5.5 3-5.5 3m5.5-3V5m0 7v6.5m0-6.5 5.5 3M12 12l5.5-3M12 2v3m0 17v-3.5M21 7l-3.5 2M3 17l3.5-2m0-6L3 10m3.5-1L6 5.5m.5 9.5L3 14m3.5 1L6 18.5M12 5 9.5 4M12 5l2.5-1M12 18.5l2.5 1.5M12 18.5 9.5 20m8-5 .5 3.5m-.5-3.5 3.5-1m-3.5-5 3.5 1m-3.5-1 .5-3.5" stroke="currentColor" stroke-linecap="round" stroke-linejoin="round"/></svg>

<svg stroke-width="1.5" viewBox="0 0 24 24" fill="none" xmlns="http://www.w3.org/2000/svg" height="1em" width="1em">
  <path d="M3 7L6.5 9M21 17L17.5 15M12 12L6.5 9M12 12L6.5 15M12 12V5M12 12V18.5M12 12L17.5 15M12 12L17.5 9M12 2V5M12 22V18.5M21 7L17.5 9M3 17L6.5 15M6.5 9L3 10M6.5 9L6 5.5M6.5 15L3 14M6.5 15L6 18.5M12 5L9.5 4M12 5L14.5 4M12 18.5L14.5 20M12 18.5L9.5 20M17.5 15L18 18.5M17.5 15L21 14M17.5 9L21 10M17.5 9L18 5.5" stroke="currentColor" stroke-linecap="round" stroke-linejoin="round"/>
</svg>
